X: 2
T: The Cameron Highlander
R: Barndance

M: 4/4
L: 1/8
K: Dmaj
|:AF|D2FA D2FA|BBAF A2FE|D2FA D2FA|GAFG E2AF|
D2FA D2FA|BBAF Adcd|B3A FAEA|FDD2 D2 :|
|:FA|BdBA FAEA| FDDE D2FA|BdBA FADE|FEED E2FA|
B2BA FAEA|FDDE D2FA|BdAd FAEA|FDDE D2:|

